melody-of-light/img/category/category-3.svg

<svg width="20" height="20" viewBox="0 0 20 20" fill="none" xmlns="http://www.w3.org/2000/svg">
<path d="M11.302 10.1823V8.31104C11.302 7.74808 10.9447 7.26865 10.4445 7.08697V0.444568C10.4445 0.19905 10.2455 0 9.99995 0C9.75443 0 9.55538 0.19905 9.55538 0.444568V7.08697C9.05519 7.26865 8.69792 7.74808 8.69792 8.31104V10.1823C5.35141 10.7747 2.76918 13.6087 2.56445 17.0722H17.4354C17.2307 13.6087 14.6485 10.7747 11.302 10.1823Z" fill="#93939F"/>
<path d="M9.99912 19.9999C11.5544 19.9999 12.923 19.1856 13.7014 17.9612H6.29688C7.07521 19.1856 8.44382 19.9999 9.99912 19.9999Z" fill="#93939F"/>
</svg>

<svg width="20" height="20" fill="none" xmlns="http://www.w3.org/2000/svg"><path d="M11.302 10.182V8.311c0-.563-.357-1.042-.857-1.224V.445a.445.445 0 10-.89 0v6.642c-.5.182-.857.661-.857 1.224v1.871c-3.347.593-5.929 3.427-6.134 6.89h14.871c-.204-3.463-2.786-6.297-6.133-6.89zM10 20a4.385 4.385 0 003.7-2.04H6.297A4.384 4.384 0 009.999 20z" fill="#93939F"/></svg>
